Sources/FrostedUI/Resources/Icons.xcassets/play12.imageset/play-12.svg

<svg width="12" height="12" viewBox="0 0 12 12" fill="none" xmlns="http://www.w3.org/2000/svg" data-fui-icon="true">
  <path
    d="M2.125 2.33853C2.125 0.951651 3.66179 0.115374 4.82617 0.868805L10.4854 4.53091C11.5507 5.22057 11.5507 6.77979 10.4854 7.46939L4.82617 11.1315L4.41797 10.5016L4.8252 11.1315C3.6609 11.8843 2.12506 11.0484 2.125 9.66177V2.33853ZM4.01074 2.12857C3.84441 2.02094 3.625 2.1404 3.625 2.33853V9.66177C3.62506 9.85983 3.84442 9.97929 4.01074 9.87173L9.66992 6.20963C9.82207 6.11114 9.822 5.88923 9.66992 5.79068L4.01074 2.12857Z"
    fill="currentColor"
  />
</svg>

<svg xmlns="http://www.w3.org/2000/svg" width="12" height="12" fill="none" data-fui-icon="true" viewBox="0 0 12 12"><path fill="currentColor" d="M2.125 2.339C2.125.952 3.662.115 4.826.869l5.66 3.662a1.75 1.75 0 0 1 0 2.938l-5.66 3.663-.408-.63.407.63c-1.164.752-2.7-.084-2.7-1.47zm1.886-.21a.25.25 0 0 0-.386.21v7.323c0 .198.22.317.386.21L9.67 6.21a.25.25 0 0 0 0-.42z"/></svg>
